src/assets/transitions/attendance/attendanceSpacer2.svg

<svg xmlns="http://www.w3.org/2000/svg" width="900" height="200"><path fill="#001222" d="M0 0h900v200H0z"/><path fill="#001222" d="m0 91 11.5-4.5C23 82 46 73 69 72.2c23-.9 46 6.5 69.2 6.5 23.1 0 46.5-7.4 69.6-6.4C231 73.3 254 82.7 277 85s46-2.3 69-2.5 46 4.2 69.2 2.8c23.1-1.3 46.5-8.3 69.6-10.5 23.2-2.1 46.2.5 69.2 4.2s46 8.3 69 5.8 46-12.1 69.2-13.8c23.1-1.7 46.5 4.7 69.6 10.7C785 87.7 808 93.3 831 95s46-.7 57.5-1.8L900 92v109H0Z"/><path fill="#081928" d="m0 97 11.5 1.3c11.5 1.4 34.5 4 57.5 6.9 23 2.8 46 5.8 69.2 2.1 23.1-3.6 46.5-14 69.6-16.6C231 88 254 93 277 95.7c23 2.6 46 3 69 .1C369 93 392 87 415.2 85c23.1-2 46.5 0 69.6 1 23.2 1 46.2 1 69.2 1.2 23 .1 46 .5 69 1s46 1.1 69.2 3c23.1 1.8 46.5 4.8 69.6 8.8 23.2 4 46.2 9 69.2 11.2 23 2.1 46 1.5 57.5 1.1l11.5-.3v89H0Z"/><path fill="#101f2f" d="m0 120 11.5-1.3c11.5-1.4 34.5-4 57.5-7.7s46-8.3 69.2-7.7c23.1.7 46.5 6.7 69.6 12.2C231 121 254 126 277 125.3c23-.6 46-7 69-9s46 .4 69.2 3.2c23.1 2.8 46.5 6.2 69.6 7.3 23.2 1.2 46.2.2 69.2-3.1 23-3.4 46-9 69-11s46-.4 69.2 3.5c23.1 3.8 46.5 9.8 69.6 7.3C785 121 808 110 831 104.7c23-5.4 46-5 57.5-4.9l11.5.2v101H0Z"/><path fill="#172635" d="M0 139h11.5c11.5 0 34.5 0 57.5.5s46 1.5 69.2-1.3c23.1-2.9 46.5-9.5 69.6-14 23.2-4.5 46.2-6.9 69.2-2.9s46 14.4 69 18.9 46 3.1 69.2 1c23.1-2.2 46.5-5.2 69.6-4.5 23.2.6 46.2 5 69.2 4s46-7.4 69-7.4 46 6.4 69.2 8.4c23.1 2 46.5-.4 69.6-2.2 23.2-1.8 46.2-3.2 69.2-4.7s46-3.1 57.5-4l11.5-.8v71H0Z"/><path fill="#1e2d3c" d="m0 149 11.5 1.2c11.5 1.1 34.5 3.5 57.5 4.1 23 .7 46-.3 69.2-2.5 23.1-2.1 46.5-5.5 69.6-5.8 23.2-.3 46.2 2.3 69.2 3.8s46 1.9 69 2.4 46 1.1 69.2.1c23.1-1 46.5-3.6 69.6-4.1 23.2-.5 46.2 1.1 69.2 3.6s46 5.9 69 3.5c23-2.3 46-10.3 69.2-13.6 23.1-3.4 46.5-2 69.6-2.2 23.2-.2 46.2-1.8 69.2-2.8s46-1.4 57.5-1.5l11.5-.2v66H0Z"/><path fill="#253343" d="m0 168 11.5-2.5C23 163 46 158 69 156.5s46 .5 69.2.5c23.1 0 46.5-2 69.6-3 23.2-1 46.2-1 69.2 2.2 23 3.1 46 9.5 69 9.5s46-6.4 69.2-6.4c23.1 0 46.5 6.4 69.6 7.2 23.2.8 46.2-3.8 69.2-4.7 23-.8 46 2.2 69 4.4 23 2.1 46 3.5 69.2 2.5 23.1-1 46.5-4.4 69.6-5.9 23.2-1.5 46.2-1.1 69.2-2.5 23-1.3 46-4.3 57.5-5.8L900 153v48H0Z"/><path fill="#2c3a4a" d="m0 170 11.5 1.5C23 173 46 176 69 178.2c23 2.1 46 3.5 69.2 2 23.1-1.5 46.5-5.9 69.6-5.5 23.2.3 46.2 5.3 69.2 6 23 .6 46-3 69-2.7s46 4.7 69.2 4.2c23.1-.5 46.5-5.9 69.6-8.7 23.2-2.8 46.2-3.2 69.2-3.3 23-.2 46-.2 69-.2s46 0 69.2 1.8c23.1 1.9 46.5 5.5 69.6 6 23.2.5 46.2-2.1 69.2-1.1s46 5.6 57.5 8L900 187v14H0Z"/></svg>

<svg id="visual" viewBox="0 0 900 200" width="900" height="200" xmlns="http://www.w3.org/2000/svg" xmlns:xlink="http://www.w3.org/1999/xlink" version="1.1"><rect x="0" y="0" width="900" height="200" fill="#001222"></rect><path d="M0 91L11.5 86.5C23 82 46 73 69 72.2C92 71.3 115 78.7 138.2 78.7C161.3 78.7 184.7 71.3 207.8 72.3C231 73.3 254 82.7 277 85C300 87.3 323 82.7 346 82.5C369 82.3 392 86.7 415.2 85.3C438.3 84 461.7 77 484.8 74.8C508 72.7 531 75.3 554 79C577 82.7 600 87.3 623 84.8C646 82.3 669 72.7 692.2 71C715.3 69.3 738.7 75.7 761.8 81.7C785 87.7 808 93.3 831 95C854 96.7 877 94.3 888.5 93.2L900 92L900 201L888.5 201C877 201 854 201 831 201C808 201 785 201 761.8 201C738.7 201 715.3 201 692.2 201C669 201 646 201 623 201C600 201 577 201 554 201C531 201 508 201 484.8 201C461.7 201 438.3 201 415.2 201C392 201 369 201 346 201C323 201 300 201 277 201C254 201 231 201 207.8 201C184.7 201 161.3 201 138.2 201C115 201 92 201 69 201C46 201 23 201 11.5 201L0 201Z" fill="#001222"></path><path d="M0 97L11.5 98.3C23 99.7 46 102.3 69 105.2C92 108 115 111 138.2 107.3C161.3 103.7 184.7 93.3 207.8 90.7C231 88 254 93 277 95.7C300 98.3 323 98.7 346 95.8C369 93 392 87 415.2 85C438.3 83 461.7 85 484.8 86C508 87 531 87 554 87.2C577 87.3 600 87.7 623 88.2C646 88.7 669 89.3 692.2 91.2C715.3 93 738.7 96 761.8 100C785 104 808 109 831 111.2C854 113.3 877 112.7 888.5 112.3L900 112L900 201L888.5 201C877 201 854 201 831 201C808 201 785 201 761.8 201C738.7 201 715.3 201 692.2 201C669 201 646 201 623 201C600 201 577 201 554 201C531 201 508 201 484.8 201C461.7 201 438.3 201 415.2 201C392 201 369 201 346 201C323 201 300 201 277 201C254 201 231 201 207.8 201C184.7 201 161.3 201 138.2 201C115 201 92 201 69 201C46 201 23 201 11.5 201L0 201Z" fill="#081928"></path><path d="M0 120L11.5 118.7C23 117.3 46 114.7 69 111C92 107.3 115 102.7 138.2 103.3C161.3 104 184.7 110 207.8 115.5C231 121 254 126 277 125.3C300 124.7 323 118.3 346 116.3C369 114.3 392 116.7 415.2 119.5C438.3 122.3 461.7 125.7 484.8 126.8C508 128 531 127 554 123.7C577 120.3 600 114.7 623 112.7C646 110.7 669 112.3 692.2 116.2C715.3 120 738.7 126 761.8 123.5C785 121 808 110 831 104.7C854 99.3 877 99.7 888.5 99.8L900 100L900 201L888.5 201C877 201 854 201 831 201C808 201 785 201 761.8 201C738.7 201 715.3 201 692.2 201C669 201 646 201 623 201C600 201 577 201 554 201C531 201 508 201 484.8 201C461.7 201 438.3 201 415.2 201C392 201 369 201 346 201C323 201 300 201 277 201C254 201 231 201 207.8 201C184.7 201 161.3 201 138.2 201C115 201 92 201 69 201C46 201 23 201 11.5 201L0 201Z" fill="#101f2f"></path><path d="M0 139L11.5 139C23 139 46 139 69 139.5C92 140 115 141 138.2 138.2C161.3 135.3 184.7 128.7 207.8 124.2C231 119.7 254 117.3 277 121.3C300 125.3 323 135.7 346 140.2C369 144.7 392 143.3 415.2 141.2C438.3 139 461.7 136 484.8 136.7C508 137.3 531 141.7 554 140.7C577 139.7 600 133.3 623 133.3C646 133.3 669 139.7 692.2 141.7C715.3 143.7 738.7 141.3 761.8 139.5C785 137.7 808 136.3 831 134.8C854 133.3 877 131.7 888.5 130.8L900 130L900 201L888.5 201C877 201 854 201 831 201C808 201 785 201 761.8 201C738.7 201 715.3 201 692.2 201C669 201 646 201 623 201C600 201 577 201 554 201C531 201 508 201 484.8 201C461.7 201 438.3 201 415.2 201C392 201 369 201 346 201C323 201 300 201 277 201C254 201 231 201 207.8 201C184.7 201 161.3 201 138.2 201C115 201 92 201 69 201C46 201 23 201 11.5 201L0 201Z" fill="#172635"></path><path d="M0 149L11.5 150.2C23 151.3 46 153.7 69 154.3C92 155 115 154 138.2 151.8C161.3 149.7 184.7 146.3 207.8 146C231 145.7 254 148.3 277 149.8C300 151.3 323 151.7 346 152.2C369 152.7 392 153.3 415.2 152.3C438.3 151.3 461.7 148.7 484.8 148.2C508 147.7 531 149.3 554 151.8C577 154.3 600 157.7 623 155.3C646 153 669 145 692.2 141.7C715.3 138.3 738.7 139.7 761.8 139.5C785 139.3 808 137.7 831 136.7C854 135.7 877 135.3 888.5 135.2L900 135L900 201L888.5 201C877 201 854 201 831 201C808 201 785 201 761.8 201C738.7 201 715.3 201 692.2 201C669 201 646 201 623 201C600 201 577 201 554 201C531 201 508 201 484.8 201C461.7 201 438.3 201 415.2 201C392 201 369 201 346 201C323 201 300 201 277 201C254 201 231 201 207.8 201C184.7 201 161.3 201 138.2 201C115 201 92 201 69 201C46 201 23 201 11.5 201L0 201Z" fill="#1e2d3c"></path><path d="M0 168L11.5 165.5C23 163 46 158 69 156.5C92 155 115 157 138.2 157C161.3 157 184.7 155 207.8 154C231 153 254 153 277 156.2C300 159.3 323 165.7 346 165.7C369 165.7 392 159.3 415.2 159.3C438.3 159.3 461.7 165.7 484.8 166.5C508 167.3 531 162.7 554 161.8C577 161 600 164 623 166.2C646 168.3 669 169.7 692.2 168.7C715.3 167.7 738.7 164.3 761.8 162.8C785 161.3 808 161.7 831 160.3C854 159 877 156 888.5 154.5L900 153L900 201L888.5 201C877 201 854 201 831 201C808 201 785 201 761.8 201C738.7 201 715.3 201 692.2 201C669 201 646 201 623 201C600 201 577 201 554 201C531 201 508 201 484.8 201C461.7 201 438.3 201 415.2 201C392 201 369 201 346 201C323 201 300 201 277 201C254 201 231 201 207.8 201C184.7 201 161.3 201 138.2 201C115 201 92 201 69 201C46 201 23 201 11.5 201L0 201Z" fill="#253343"></path><path d="M0 170L11.5 171.5C23 173 46 176 69 178.2C92 180.3 115 181.7 138.2 180.2C161.3 178.7 184.7 174.3 207.8 174.7C231 175 254 180 277 180.7C300 181.3 323 177.7 346 178C369 178.3 392 182.7 415.2 182.2C438.3 181.7 461.7 176.3 484.8 173.5C508 170.7 531 170.3 554 170.2C577 170 600 170 623 170C646 170 669 170 692.2 171.8C715.3 173.7 738.7 177.3 761.8 177.8C785 178.3 808 175.7 831 176.7C854 177.7 877 182.3 888.5 184.7L900 187L900 201L888.5 201C877 201 854 201 831 201C808 201 785 201 761.8 201C738.7 201 715.3 201 692.2 201C669 201 646 201 623 201C600 201 577 201 554 201C531 201 508 201 484.8 201C461.7 201 438.3 201 415.2 201C392 201 369 201 346 201C323 201 300 201 277 201C254 201 231 201 207.8 201C184.7 201 161.3 201 138.2 201C115 201 92 201 69 201C46 201 23 201 11.5 201L0 201Z" fill="#2c3a4a"></path></svg>
